X: 24654
T: MacFarlane's Rant
R: reel
M: 4/4
K: Dmajor
f~A3 edBd|f~A3 e2de|f~A3 edBd|affa e2de:|
f2fd edBd|f2fd e2de|f2fd edBd|affa e2de|
f2fd edBd|f2fd e2de|f~A3 edBd|affa e2de||

